!!! OTL: Berkowitz384
!!! Chapter: 1
!!! Section: III
!!! Page: 94
!!! Mode: 
!!! Encoder: DJB
**kern
*staff1
*I"Piano
=1-
*clefG2
*k[b-]
*F:
*M4/4
2r
8r
8f/L
8e/
8d/J
=2
4c/
8e/L
8g/J
4b-\
4dd\
=3
4dd\
4cc\
4r
4cc#\
=4
4dd\
4b-\
4g/
4e/
=5
4c/
4dd\
4cc\
8r
8a/
=6
8b-/L
8a/
8g/
8f/J
4e/
8d/L
8e/J
=7
4c/
4e/
4g/
4b-\
=8
!!linebreak:original
4dd\
8cc\L
8b-\J
4a/
8g/L
8f#/J
=9
4.g/
8a/
8f/
8r
4r
==
*-
